X: 30471
P: Key of A Minor.
M: C|
L: 1/8
K: Am
V: 1 staves=3
E2 |\
|: e^f |\
g3a gfef | x3^d e2x2 & gfe^c d2c=d | edcB ABcA | B^GEE E2EG |\
V: 2
E2 |\
|: z2 |\
V: 3 clef=bass middle=d
z2 |\
a2z2 a2z2 | a2z2 a2z2 | a2z2 a2a2 | e2e2 e2z2 |\
a2z2 a2z2 | a2z2 a2z2 | a2z2 e2e2 | a2A2 A2 :|
|: z2 |\
e2z2 e2z2 | b2z2 e2z2 | c2z2 a2a2 | e2e2 e2z2 |\
a2z2 a2z2 | a2z2 a2z2 | a2z2 e2e2 | a2A2 A2 :|


